public/images/cafe-josef/4.svg

<svg width="697" height="153" viewBox="0 0 697 153" fill="none" xmlns="http://www.w3.org/2000/svg">
<path d="M215.327 119.609C209.707 119.609 204.601 118.422 200.009 116.047C195.497 113.672 191.895 110.228 189.204 105.716C186.591 101.204 185.285 95.7811 185.285 89.4482V87.9045C185.285 81.5716 186.591 76.1885 189.204 71.7555C191.895 67.2432 195.497 63.7997 200.009 61.4248C204.601 58.9708 209.707 57.7438 215.327 57.7438C220.948 57.7438 225.737 58.7729 229.695 60.8311C233.653 62.8893 236.82 65.6204 239.194 69.0244C241.648 72.4283 243.232 76.1885 243.944 80.305L232.07 82.7986C231.674 80.1862 230.843 77.8114 229.576 75.674C228.31 73.5366 226.528 71.8346 224.233 70.568C221.937 69.3014 219.048 68.6681 215.564 68.6681C212.161 68.6681 209.073 69.4598 206.303 71.043C203.611 72.5471 201.474 74.7636 199.89 77.6926C198.307 80.5424 197.516 84.0256 197.516 88.142V89.2107C197.516 93.3271 198.307 96.8498 199.89 99.7788C201.474 102.708 203.611 104.924 206.303 106.428C209.073 107.933 212.161 108.685 215.564 108.685C220.71 108.685 224.629 107.378 227.32 104.766C230.012 102.075 231.714 98.6706 232.426 94.5541L244.3 97.2852C243.35 101.322 241.648 105.043 239.194 108.447C236.82 111.851 233.653 114.582 229.695 116.64C225.737 118.619 220.948 119.609 215.327 119.609ZM270.637 119.609C266.442 119.609 262.681 118.896 259.357 117.472C256.111 116.047 253.499 113.949 251.52 111.178C249.62 108.408 248.67 105.043 248.67 101.085C248.67 97.0477 249.62 93.7229 251.52 91.1106C253.499 88.4191 256.151 86.4004 259.475 85.0547C262.879 83.7089 266.719 83.0361 270.993 83.0361H288.805V79.2363C288.805 75.8323 287.776 73.1012 285.718 71.043C283.659 68.9848 280.493 67.9557 276.218 67.9557C272.023 67.9557 268.816 68.9452 266.6 70.9242C264.383 72.9033 262.919 75.4761 262.206 78.6426L250.807 74.9615C251.757 71.795 253.261 68.9452 255.319 66.412C257.457 63.7997 260.267 61.7019 263.75 60.1186C267.233 58.5354 271.429 57.7438 276.337 57.7438C283.936 57.7438 289.913 59.6832 294.267 63.5622C298.621 67.4411 300.798 72.9429 300.798 80.0675V104.172C300.798 106.547 301.906 107.735 304.123 107.735H309.11V117.947H299.967C297.196 117.947 294.94 117.234 293.198 115.809C291.457 114.384 290.586 112.445 290.586 109.991V109.635H288.805C288.172 110.822 287.222 112.207 285.955 113.791C284.688 115.374 282.828 116.759 280.374 117.947C277.92 119.055 274.674 119.609 270.637 119.609ZM272.418 109.516C277.326 109.516 281.284 108.13 284.293 105.36C287.301 102.51 288.805 98.631 288.805 93.7229V92.5355H271.706C268.46 92.5355 265.848 93.248 263.869 94.6729C261.89 96.0186 260.9 98.0373 260.9 100.729C260.9 103.42 261.929 105.558 263.988 107.141C266.046 108.724 268.856 109.516 272.418 109.516ZM321.574 117.947V69.7368H305.188V59.4062H321.574V46.5819C321.574 43.0196 322.643 40.1698 324.78 38.0324C326.918 35.895 329.768 34.8263 333.33 34.8263H348.41V45.157H337.248C334.953 45.157 333.805 46.3444 333.805 48.7193V59.4062H350.666V69.7368H333.805V117.947H321.574ZM381.652 119.609C375.715 119.609 370.53 118.382 366.096 115.928C361.663 113.395 358.18 109.872 355.647 105.36C353.193 100.768 351.966 95.4645 351.966 89.4482V88.0233C351.966 81.9278 353.193 76.6239 355.647 72.1117C358.101 67.5203 361.505 63.9976 365.859 61.5435C370.292 59.0104 375.398 57.7438 381.177 57.7438C386.797 57.7438 391.705 59.0104 395.901 61.5435C400.176 63.9976 403.501 67.4411 405.875 71.8742C408.25 76.3073 409.438 81.4924 409.438 87.4295V92.0605H364.434C364.592 97.2061 366.294 101.322 369.54 104.41C372.865 107.418 376.981 108.922 381.889 108.922C386.481 108.922 389.924 107.893 392.22 105.835C394.595 103.777 396.416 101.402 397.682 98.7101L407.775 103.935C406.667 106.151 405.044 108.487 402.907 110.941C400.849 113.395 398.118 115.453 394.714 117.115C391.31 118.778 386.956 119.609 381.652 119.609ZM364.553 82.6798H396.97C396.653 78.2467 395.07 74.8032 392.22 72.3492C389.37 69.816 385.649 68.5494 381.058 68.5494C376.467 68.5494 372.706 69.816 369.777 72.3492C366.928 74.8032 365.186 78.2467 364.553 82.6798ZM431.389 141.695V131.127H439.345C441.641 131.127 442.789 129.94 442.789 127.565V59.4062H455.019V129.94C455.019 133.502 453.99 136.352 451.932 138.489C449.874 140.626 446.984 141.695 443.264 141.695H431.389ZM448.963 51.4504C446.589 51.4504 444.57 50.6983 442.907 49.1943C441.324 47.611 440.533 45.5924 440.533 43.1384C440.533 40.6843 441.324 38.7053 442.907 37.2012C444.57 35.618 446.589 34.8263 448.963 34.8263C451.417 34.8263 453.436 35.618 455.019 37.2012C456.603 38.7053 457.394 40.6843 457.394 43.1384C457.394 45.5924 456.603 47.611 455.019 49.1943C453.436 50.6983 451.417 51.4504 448.963 51.4504ZM494.657 119.609C488.799 119.609 483.575 118.422 478.983 116.047C474.471 113.593 470.909 110.109 468.296 105.597C465.684 101.085 464.378 95.7416 464.378 89.5669V87.7858C464.378 81.6111 465.684 76.3073 468.296 71.8742C470.909 67.362 474.471 63.8788 478.983 61.4248C483.575 58.9708 488.799 57.7438 494.657 57.7438C500.515 57.7438 505.74 58.9708 510.331 61.4248C514.923 63.8788 518.525 67.362 521.137 71.8742C523.749 76.3073 525.055 81.6111 525.055 87.7858V89.5669C525.055 95.7416 523.749 101.085 521.137 105.597C518.525 110.109 514.923 113.593 510.331 116.047C505.74 118.422 500.515 119.609 494.657 119.609ZM494.657 108.685C500.04 108.685 504.394 106.983 507.719 103.579C511.123 100.095 512.825 95.3062 512.825 89.2107V88.142C512.825 82.0465 511.163 77.2968 507.838 73.8928C504.513 70.4097 500.119 68.6681 494.657 68.6681C489.353 68.6681 484.999 70.4097 481.595 73.8928C478.271 77.2968 476.608 82.0465 476.608 88.142V89.2107C476.608 95.3062 478.271 100.095 481.595 103.579C484.999 106.983 489.353 108.685 494.657 108.685ZM558.331 119.609C550.89 119.609 544.716 117.947 539.807 114.622C534.899 111.297 531.891 106.27 530.783 99.5413L542.182 96.8103C542.816 100.056 543.884 102.629 545.388 104.529C546.892 106.428 548.753 107.774 550.969 108.566C553.265 109.357 555.719 109.753 558.331 109.753C562.21 109.753 565.179 109.001 567.237 107.497C569.375 105.993 570.443 104.054 570.443 101.679C570.443 99.3039 569.454 97.5623 567.475 96.454C565.496 95.3458 562.567 94.4354 558.688 93.7229L554.65 93.0105C550.692 92.298 547.09 91.2689 543.845 89.9232C540.599 88.5774 538.026 86.7171 536.126 84.3422C534.227 81.9674 533.277 78.9196 533.277 75.199C533.277 69.6577 535.335 65.3829 539.451 62.3747C543.568 59.2874 549.03 57.7438 555.838 57.7438C562.408 57.7438 567.791 59.2478 571.987 62.256C576.262 65.185 579.032 69.1827 580.299 74.2491L568.9 77.4551C568.187 73.8928 566.683 71.3992 564.387 69.9743C562.092 68.4702 559.242 67.7182 555.838 67.7182C552.513 67.7182 549.901 68.3515 548.001 69.6181C546.101 70.8055 545.151 72.5075 545.151 74.724C545.151 77.0989 546.061 78.8405 547.882 79.9487C549.782 81.057 552.315 81.8882 555.482 82.4423L559.638 83.1548C563.833 83.8673 567.673 84.8568 571.156 86.1234C574.639 87.39 577.37 89.2107 579.349 91.5856C581.407 93.9604 582.436 97.1269 582.436 101.085C582.436 106.943 580.259 111.495 575.905 114.74C571.551 117.986 565.693 119.609 558.331 119.609ZM617.631 119.609C611.693 119.609 606.508 118.382 602.075 115.928C597.642 113.395 594.159 109.872 591.626 105.36C589.172 100.768 587.945 95.4645 587.945 89.4482V88.0233C587.945 81.9278 589.172 76.6239 591.626 72.1117C594.08 67.5203 597.484 63.9976 601.838 61.5435C606.271 59.0104 611.377 57.7438 617.156 57.7438C622.776 57.7438 627.684 59.0104 631.88 61.5435C636.155 63.9976 639.479 67.4411 641.854 71.8742C644.229 76.3073 645.416 81.4924 645.416 87.4295V92.0605H600.413C600.571 97.2061 602.273 101.322 605.519 104.41C608.844 107.418 612.96 108.922 617.868 108.922C622.459 108.922 625.903 107.893 628.199 105.835C630.574 103.777 632.394 101.402 633.661 98.7101L643.754 103.935C642.646 106.151 641.023 108.487 638.886 110.941C636.827 113.395 634.096 115.453 630.692 117.115C627.288 118.778 622.934 119.609 617.631 119.609ZM600.532 82.6798H632.948C632.632 78.2467 631.049 74.8032 628.199 72.3492C625.349 69.816 621.628 68.5494 617.037 68.5494C612.445 68.5494 608.685 69.816 605.756 72.3492C602.906 74.8032 601.165 78.2467 600.532 82.6798ZM662.567 117.947V69.7368H646.18V59.4062H662.567V46.5819C662.567 43.0196 663.635 40.1698 665.773 38.0324C667.91 35.895 670.76 34.8263 674.322 34.8263H689.402V45.157H678.241C675.945 45.157 674.797 46.3444 674.797 48.7193V59.4062H691.659V69.7368H674.797V117.947H662.567Z" fill="black"/>
<path d="M53.4107 24.9077L68.0774 24.9359L81.6929 35.8001L94.7638 24.9077H110.394C119.187 24.9077 126.317 32.0379 126.317 40.831V127.775H37.4599V40.8591C37.4599 32.0661 44.5898 24.9359 53.3825 24.9359L53.4107 24.9077Z" fill="black"/>
<path d="M163.714 112.059C163.714 116.361 160.909 120.16 156.798 121.427L120.304 132.677C94.8772 140.508 67.9667 140.48 42.5655 132.564L6.88587 121.442C2.78989 120.165 0 116.374 0 112.083V101.408C0 94.7969 6.4093 90.0813 12.7204 92.0486L42.5655 101.352C67.9667 109.267 94.8772 109.295 120.304 101.464L151.023 91.9954C157.328 90.0519 163.714 94.7659 163.714 101.364V112.059Z" fill="black"/>
</svg>

<svg xmlns="http://www.w3.org/2000/svg" width="697" height="153" fill="none"><path fill="#000" d="M215.327 119.609q-8.43 0-15.318-3.562-6.768-3.563-10.805-10.331-3.92-6.768-3.919-16.268v-1.543q0-9.5 3.919-16.15 4.037-6.768 10.805-10.33 6.888-3.681 15.318-3.681t14.368 3.087 9.499 8.193a26.9 26.9 0 0 1 4.75 11.281l-11.874 2.494q-.594-3.92-2.494-7.125t-5.343-5.106q-3.443-1.9-8.669-1.9-5.105 0-9.261 2.375-4.037 2.255-6.413 6.65-2.374 4.275-2.374 10.449v1.069q0 6.174 2.374 10.568 2.376 4.393 6.413 6.649 4.156 2.257 9.261 2.257 7.72 0 11.756-3.919 4.038-4.037 5.106-10.212l11.874 2.731a31.1 31.1 0 0 1-5.106 11.162q-3.561 5.106-9.499 8.193-5.937 2.969-14.368 2.969m55.31 0q-6.293 0-11.28-2.137-4.869-2.138-7.837-6.294-2.85-4.156-2.85-10.093 0-6.056 2.85-9.974 2.969-4.037 7.955-6.056 5.106-2.019 11.518-2.019h17.812v-3.8q0-5.106-3.087-8.193t-9.5-3.087q-6.293 0-9.618 2.968-3.325 2.97-4.394 7.719l-11.399-3.681a24.7 24.7 0 0 1 4.512-8.55q3.207-3.918 8.431-6.293 5.225-2.376 12.587-2.375 11.399 0 17.93 5.818 6.531 5.819 6.531 16.505v24.105q0 3.563 3.325 3.563h4.987v10.212h-9.143q-4.156 0-6.769-2.138-2.612-2.137-2.612-5.818v-.356h-1.781q-.95 1.78-2.85 4.156-1.9 2.374-5.581 4.156-3.681 1.662-9.737 1.662m1.781-10.093q7.362 0 11.875-4.156 4.512-4.275 4.512-11.637v-1.187h-17.099q-4.869 0-7.837 2.137-2.969 2.018-2.969 6.056 0 4.037 3.088 6.412t8.43 2.375m49.156 8.431v-48.21h-16.386v-10.33h16.386V46.581q0-5.343 3.206-8.55 3.207-3.206 8.55-3.206h15.08v10.331h-11.162q-3.443 0-3.443 3.562v10.687h16.861v10.33h-16.861v48.211zm60.078 1.662q-8.905 0-15.556-3.681-6.65-3.8-10.449-10.568-3.681-6.887-3.681-15.912v-1.425q0-9.144 3.681-15.911 3.681-6.888 10.212-10.568 6.65-3.8 15.318-3.8 8.43 0 14.724 3.8 6.413 3.68 9.974 10.33 3.563 6.65 3.563 15.556v4.63h-45.004q.237 7.719 5.106 12.35 4.987 4.512 12.349 4.512 6.888 0 10.331-3.087 3.563-3.087 5.462-7.125l10.093 5.225q-1.662 3.325-4.868 7.006-3.087 3.681-8.193 6.174t-13.062 2.494m-17.099-36.93h32.417q-.475-6.648-4.75-10.33-4.275-3.8-11.162-3.8t-11.281 3.8q-4.274 3.681-5.224 10.33m66.836 59.016v-10.568h7.956q3.444 0 3.444-3.562V59.406h12.23v70.534q0 5.343-3.087 8.549t-8.668 3.206zm17.574-90.245q-3.561 0-6.056-2.256-2.374-2.375-2.374-6.056t2.374-5.937q2.495-2.375 6.056-2.375 3.681 0 6.056 2.375 2.375 2.256 2.375 5.937t-2.375 6.056q-2.375 2.256-6.056 2.256m45.694 68.159q-8.786 0-15.674-3.562-6.768-3.681-10.687-10.45t-3.918-16.03v-1.781q0-9.262 3.918-15.912 3.92-6.768 10.687-10.45 6.887-3.68 15.674-3.68t15.674 3.68 10.806 10.45q3.918 6.65 3.918 15.912v1.78q0 9.263-3.918 16.031-3.918 6.769-10.806 10.45-6.887 3.562-15.674 3.562m0-10.924q8.075 0 13.062-5.106 5.106-5.226 5.106-14.368v-1.069q0-9.143-4.987-14.25-4.988-5.224-13.181-5.224-7.956 0-13.062 5.225-4.986 5.106-4.987 14.249v1.069q0 9.142 4.987 14.368 5.106 5.106 13.062 5.106m63.674 10.924q-11.161 0-18.524-4.987-7.362-4.988-9.024-15.08l11.399-2.732q.95 4.869 3.206 7.719 2.256 2.849 5.581 4.037 3.444 1.187 7.362 1.187 5.819 0 8.906-2.256 3.207-2.256 3.206-5.818 0-3.563-2.968-5.225-2.969-1.663-8.787-2.731l-4.038-.713q-5.937-1.068-10.805-3.087-4.869-2.019-7.719-5.58-2.849-3.563-2.849-9.144 0-8.312 6.174-12.824 6.175-4.631 16.387-4.631 9.855 0 16.149 4.512 6.412 4.394 8.312 11.993L568.9 77.455q-1.07-5.343-4.513-7.48-3.443-2.257-8.549-2.257-4.987 0-7.837 1.9-2.85 1.782-2.85 5.106 0 3.563 2.731 5.225 2.85 1.663 7.6 2.493l4.156.713q6.293 1.069 11.518 2.968t8.193 5.463q3.087 3.56 3.087 9.499 0 8.787-6.531 13.655-6.531 4.869-17.574 4.869m59.3 0q-8.907 0-15.556-3.681-6.65-3.8-10.449-10.568-3.681-6.887-3.681-15.912v-1.425q0-9.144 3.681-15.911 3.681-6.888 10.212-10.568 6.65-3.8 15.318-3.8 8.43 0 14.724 3.8 6.412 3.68 9.974 10.33t3.562 15.556v4.63h-45.003q.237 7.719 5.106 12.35 4.987 4.512 12.349 4.512 6.887 0 10.331-3.087 3.562-3.087 5.462-7.125l10.093 5.225q-1.662 3.325-4.868 7.006-3.088 3.681-8.194 6.174t-13.061 2.494m-17.099-36.93h32.416q-.474-6.648-4.749-10.33-4.275-3.8-11.162-3.8t-11.281 3.8q-4.275 3.681-5.224 10.33m62.035 35.268v-48.21H646.18v-10.33h16.387V46.581q0-5.343 3.206-8.55 3.206-3.206 8.549-3.206h15.08v10.331h-11.161q-3.444 0-3.444 3.562v10.687h16.862v10.33h-16.862v48.211zM53.41 24.908l14.667.028L81.693 35.8l13.07-10.892h15.631c8.793 0 15.923 7.13 15.923 15.923v86.944H37.46V40.859c0-8.793 7.13-15.923 15.923-15.923z"/><path fill="#000" d="M163.714 112.059a9.8 9.8 0 0 1-6.916 9.368l-36.494 11.25c-25.427 7.831-52.337 7.803-77.738-.113l-35.68-11.122A9.8 9.8 0 0 1 0 112.083v-10.675c0-6.611 6.41-11.327 12.72-9.36l29.846 9.304c25.4 7.915 52.311 7.943 77.738.112l30.719-9.469c6.305-1.943 12.691 2.77 12.691 9.369z"/></svg>
